settings-icons/emoji.svg

<svg viewbox="0 0 24 24" xmlns="http://www.w3.org/2000/svg" xml:space="preserve"><path d="m12,2c-5.523,0 -10,4.477 -10,10c0,5.522 4.477,10 10,10c5.523,0 10,-4.478 10,-10c0,-5.523 -4.478,-10 -10,-10zm4.293,4.293l1.414,1.413l-1.293,1.294l1.293,1.293l-1.414,1.413l-2.707,-2.706l2.707,-2.707zm-10,1.414l1.414,-1.413l2.707,2.706l-2.707,2.707l-1.414,-1.413l1.293,-1.294l-1.293,-1.293zm11.707,6.293c0,2.617 -2.86,5 -6,5c-3.14,0 -6,-2.383 -6,-5l0,-1l12,0l0,1z" clip-rule="evenodd"/></svg>

<svg xmlns="http://www.w3.org/2000/svg" xml:space="preserve" viewBox="0 0 24 24"><path clip-rule="evenodd" d="M12 2C6.477 2 2 6.477 2 12C2 17.522 6.477 22 12 22C17.523 22 22 17.522 22 12C22 6.477 17.522 2 12 2ZM16.293 6.293L17.707 7.706L16.414 9L17.707 10.293L16.293 11.706L13.586 9L16.293 6.293ZM6.293 7.707L7.707 6.294L10.414 9L7.707 11.707L6.293 10.294L7.586 9L6.293 7.707ZM18 14C18 16.617 15.14 19 12 19C8.86 19 6 16.617 6 14V13H18V14Z"></path></svg>
